X: 2339
M: C
L: 1/8
K: Bb
uF2 |:\
gfdB bfdB |[1,3 ABcB AFGA :|[2,4 AFGA B2 H::\
(uAB) |\
c(f=ef) d(fef) |
c(f=ef) d(fef) |\
=efgf ecde | fag=e fefd |\
c(f=ef) d(fef) | c(f=ef) d(fef) |\
=efgf ecde |f2a2 "_D.C."f2 :|


